X:3312
L:1/8
M:4/4
K:C
[M:2/2][K:Ddor] .abc c(AGF) G2 (AF) | DGBG dGB(d | cAG)F G2 (3efg | fdc(A df)ed | c(AGF) G2 (AF) | 
 DGBd c2 (BA) | FGAB c(d (3efg) | f(dcA) d2 || (cA) | G(ggf g2 (ag) | f)d (3def (fd)cA | 
 G(ggf) g2 (3efg | fdc(A BG)AF | G(ggf) g2 (fg) | aba(f g2) fg | (3agf (3gfe (3fed (fd) | 
 cAGA f2 (ed) | |]

